X: 2
T: Karusellen
T: The Carousel
M: C
L: 1/8
K: A
z \
| "A" E2 E2 E2 E2 | A>E CD E2 z2 | "D"F>E DC "E7"D2 D2 | E>D CB, "A"C2 C2 |
| "A"E>E EE E2 EE | A2 C>D E2 E>E | "D"F2 F>F "E7"G2 G>G | "A"A>A AA A3 |
|: C \
| "A" E2 E2 E2 zE | "D"F2 F>F F2 zF | "E7"G>G G>G G>E FG | "A"A2 A>A A2 z :|
%%sep 1 1 10cm
